X:1
T: Its nice to get up in the morning
C:
R:Jig
Q:180
K:G
M:6/8
L:1/16
BA|G2F2E2 D2C2B,2|D4D2 D4D2|G4G2 A4F2|G6 G4B2|c4d2 e4d2|d4B2 B2A2G2|A4E2 F4G2|A6 A4c2|
c4d2 e4d2|d4B2 B2A2B2|d4B2 B2A2G2|A6 B4A2|G2F2E2 D2C2B,2|D4D2 D2E2F2|G2G2G2 A4F2|G6 G2B2A2|
G2F2E2 D2C2B,2|D4D2 D4D2|G4G2 A4F2|G6 G4B2|c4d2 e4d2|d4B2 B2A2G2|A4E2 F4G2|A6 A4c2|
c4d2 e4d2|d4B2 B2A2B2|d4B2 B2A2G2|A6 B4A2|G2F2E2 D2C2B,2|D4D2 D2E2F2|G2G2G2 A4F2|G6 G4||
